X:476
T:WalnutCreek-G-May
C:Gary May
N:Transcribed by Gary May
R:bluegrass
L:1/8
Q:1/4=135
M:4/4
K:C
"G"zD/D/ DD E/G/G/E/ DG | "C"ED/D/ "G"DE E/G/G/A/ B/A/B/A/ | GD/D/ DD E/G/G/E/ DG | 
"C"AG/B/ "G"A/B/A/B/ A/B/A/B/ "D"A/B/A/g/ | "G"G2 B/d/d d/e/e/dB/B | "D"A_B "G"=B/d/d d/e/d "D"B/G/A | 
"G"GA B/d/d d/e/e/dB/B | "D"AG, "G"B/d/d g/e/B/B/ B/d/A | Ge ^f/g/g/e/ dB/B/ "C"c/d/d | 
"G"d3/2_B/ =B/B/B/dB/^c/Bg^f/ | "D"ze ^f/g/g/e/ dB/B/ c/d/d | d3/2_B/ =B/A/G/GE/D "D"E/GG/ | 
"G"z2 G^F/E/ D_B, B,/A,/G, | G,2 GD/D/ ED2^F | G8 | z8 | z8 | z8 | z8 | z8 | z8 | 
z8 | z8 | z8 | 


